; generated by Slic3r 1.2.9 on 2018-02-13 at 20:31:53

; external perimeters extrusion width = 0.50mm
; perimeters extrusion width = 0.72mm
; infill extrusion width = 0.72mm
; solid infill extrusion width = 0.72mm
; top infill extrusion width = 0.72mm

M107
M104 S200 ; set temperature
G28 ; home all axes
G1 Z5 F5000 ; lift nozzle

M109 S200 ; wait for temperature to be reached
G21 ; set units to millimeters
G90 ; use absolute coordinates
M82 ; use absolute distances for extrusion
G92 E0
G1 Z0.500 F7800.000
G1 E-2.00000 F2400.00000
G92 E0
G1 X89.947 Y93.541 F7800.000
G1 E2.00000 F2400.00000
G1 X91.381 Y92.422 E2.11486 F818.025
G1 X91.620 Y92.282 E2.13235
G1 X93.161 Y91.615 E2.23841
G1 X93.870 Y91.407 E2.28507
G1 X95.716 Y91.128 E2.40295
G1 X95.983 Y91.124 E2.41983
G1 X97.585 Y91.289 E2.52151
G1 X98.294 Y91.448 E2.56737 F818.025
G1 X100.224 Y92.198 E2.69810
G1 X100.484 Y92.347 E2.71706
G1 X101.737 Y93.270 E2.81534
G1 X102.328 Y93.817 E2.86616
G1 X103.995 Y96.201 E3.04986
G1 X104.126 Y96.511 E3.07113
G1 X104.408 Y97.321 E3.12529
G1 X104.638 Y98.140 E3.17896
G1 X104.878 Y100.467 E3.32670
G1 X104.670 Y101.740 E3.40816
G1 X104.416 Y102.714 E3.47170
G1 X103.215 Y105.169 E3.64430
G1 X102.533 Y105.971 E3.71074
G1 X102.007 Y106.503 E3.75800
G1 X100.451 Y107.685 E3.88140
G1 X100.253 Y107.795 E3.89570
G1 X98.807 Y108.395 E3.99455
G1 X98.065 Y108.608 E4.04332
G1 X96.317 Y108.874 E4.15498
G1 X96.090 Y108.879 E4.16928
G1 X94.391 Y108.705 E4.27718
G1 X93.645 Y108.534 E4.32546
G1 X91.909 Y107.878 E4.44269
G1 X91.685 Y107.757 E4.45875
G1 X90.329 Y106.794 E4.56379
G1 X89.757 Y106.274 E4.61258
G1 X88.508 Y104.759 E4.73658
G1 X88.368 Y104.529 E4.75354
G1 X87.688 Y103.035 E4.85722
G1 X87.455 Y102.303 E4.90571
G1 X87.132 Y100.356 E5.03033
G1 X87.127 Y100.077 E5.04798
G1 X87.321 Y98.305 E5.16054
G1 X87.513 Y97.513 E5.21196
G1 X88.194 Y95.780 E5.32958
G1 X88.334 Y95.531 E5.34759
G1 X89.430 Y94.067 E5.46309
G1 X89.894 Y93.594 E5.50490
G1 E3.50490 F2400.00000
G92 E0
G1 X96.481 Y100.308 F7800.000
G1 E2.00000 F2400.00000
G1 X96.295 Y100.496 E2.01673 F818.025
G1 X96.014 Y100.577 E2.03521
G1 X95.738 Y100.513 E2.05311
G1 X95.516 Y100.312 E2.07202
G1 X95.427 Y100.033 E2.09050
G1 X95.508 Y99.703 E2.11194
G1 X95.703 Y99.504 E2.12952
G1 X95.984 Y99.421 E2.14806
G1 X96.250 Y99.481 E2.16523
G1 X96.465 Y99.680 E2.18372
G1 X96.558 Y100.013 E2.20559
G1 X96.500 Y100.235 E2.22006
G1 X97.116 Y100.935 F7800.000
G1 X96.798 Y101.258 E2.24871 F818.025
G1 X96.712 Y101.305 E2.25488
G1 X96.087 Y101.485 E2.29596
G1 X95.988 Y101.487 E2.30223
G1 X95.370 Y101.345 E2.34228
G1 X95.259 Y101.285 E2.35021
G1 X94.786 Y100.854 E2.39062
G1 X94.715 Y100.737 E2.39925
G1 X94.522 Y100.132 E2.43939
G1 X94.519 Y99.990 E2.44836
G1 X94.680 Y99.328 E2.49136
G1 X94.753 Y99.197 E2.50083
G1 X95.176 Y98.766 E2.53896
G1 X95.305 Y98.691 E2.54838
G1 X95.890 Y98.519 E2.58685
G1 X96.030 Y98.517 E2.59571
G1 X96.607 Y98.646 E2.63307
G1 X96.752 Y98.729 E2.64364 F818.025
G1 X97.222 Y99.164 E2.68405
G1 X97.298 Y99.347 E2.69654
G1 X97.483 Y100.005 E2.73970
G1 X97.285 Y100.765 E2.78927
G1 X97.169 Y100.881 E2.79965
G1 X96.677 Y100.820 F7800.000
G1 Z0.800 F7800.000
G1 X96.357 Y100.392 F7800.000
G1 X96.143 Y100.511 E2.80645 F600.000
G1 X95.892 Y100.517 E2.81344
G1 X95.643 Y100.382 E2.82129
G1 X95.502 Y100.150 E2.82884
G1 X95.496 Y99.877 E2.83641
G1 X95.633 Y99.633 E2.84419
G1 X95.867 Y99.496 E2.85173
G1 X96.107 Y99.492 E2.85840
G1 X96.335 Y99.623 E2.86570
G1 X96.501 Y100.020 E2.87764
G1 X96.433 Y100.294 E2.88549
G1 X96.403 Y100.333 E2.88686
G1 X96.822 Y100.851 F7800.000
G1 X96.752 Y100.922 E2.88961 F600.000
G1 X96.417 Y101.108 E2.90027
G1 X96.221 Y101.164 E2.90592
G1 X95.835 Y101.173 E2.91666
G1 X95.650 Y101.130 E2.92192
G1 X95.249 Y100.913 E2.93460
G1 X95.139 Y100.813 E2.93871
G1 X94.885 Y100.396 E2.95228
G1 X94.850 Y100.285 E2.95553
G1 X94.839 Y99.776 E2.96965
G1 X94.868 Y99.660 E2.97297
G1 X95.125 Y99.201 E2.98760
G1 X95.190 Y99.134 E2.99019
G1 X95.636 Y98.872 E3.00455
G1 X95.736 Y98.843 E3.00745
G1 X96.229 Y98.836 E3.02114
G1 X96.310 Y98.854 E3.02344
G1 X96.804 Y99.138 E3.03925 F600.000
G1 X96.865 Y99.194 E3.04157
G1 X97.118 Y99.798 E3.05976
G1 X97.178 Y100.012 E3.06592
G1 X97.035 Y100.584 E3.08233
G1 X96.872 Y100.796 E3.08973
G1 X97.210 Y101.234 F7800.000
G1 X97.085 Y101.360 E3.09300 F600.000
G1 X96.627 Y101.615 E3.10269
G1 X96.304 Y101.707 E3.10891
G1 X95.779 Y101.719 E3.11862
G1 X95.456 Y101.645 E3.12475
G1 X94.931 Y101.361 E3.13578
G1 X94.714 Y101.164 E3.14119
G1 X94.386 Y100.623 E3.15288
G1 X94.307 Y100.375 E3.15771
G1 X94.293 Y99.717 E3.16988
G1 X94.356 Y99.459 E3.17478
G1 X94.685 Y98.871 E3.18724
G1 X94.852 Y98.700 E3.19166
G1 X95.418 Y98.368 E3.20379
G1 X95.654 Y98.299 E3.20834
G1 X96.286 Y98.290 E3.22001
G1 X96.509 Y98.340 E3.22426
G1 X97.129 Y98.696 E3.23746 F600.000
G1 X97.322 Y98.875 E3.24232
G1 X97.634 Y99.618 E3.25723
G1 X97.742 Y100.004 E3.26464
G1 X97.536 Y100.827 E3.28032
G1 X97.262 Y101.181 E3.28859
G1 X97.037 Y101.195 F7800.000
G1 Z1.100 F7800.000
G1 X96.368 Y100.369 F7800.000
G1 X96.142 Y100.494 E3.29580 F600.000
G1 X95.910 Y100.500 E3.30223
G1 X95.651 Y100.355 E3.31046
G1 X95.523 Y100.144 E3.31733
G1 X95.516 Y99.894 E3.32428
G1 X95.657 Y99.642 E3.33231
G1 X95.869 Y99.518 E3.33911
G1 X96.101 Y99.515 E3.34557
G1 X96.301 Y99.631 E3.35199
G1 X96.490 Y100.080 E3.36551
G1 X96.443 Y100.271 E3.37097
G1 X96.414 Y100.309 E3.37231
G1 X96.686 Y100.941 F7800.000
G1 X96.318 Y101.145 E3.38400 F600.000
G1 X95.747 Y101.158 E3.39985
G1 X95.182 Y100.843 E3.41782
G1 X94.873 Y100.335 E3.43435
G1 X94.858 Y99.731 E3.45113
G1 X95.173 Y99.167 E3.46908
G1 X95.688 Y98.866 E3.48565
G1 X96.274 Y98.859 E3.50193
G1 X96.819 Y99.175 E3.51945
G1 X97.177 Y100.025 E3.54506 F600.000
G1 X97.047 Y100.560 E3.56034
G1 X96.805 Y100.875 E3.57138
G1 X96.751 Y100.905 E3.57308
G1 X96.950 Y101.418 F7800.000
G1 X96.438 Y101.688 E3.58378 F600.000
G1 X95.641 Y101.705 E3.59852
G1 X95.589 Y101.693 E3.59952
G1 X94.791 Y101.250 E3.61639
G1 X94.331 Y100.494 E3.63274
G1 X94.309 Y99.595 E3.64936
G1 X94.770 Y98.771 E3.66681
G1 X95.537 Y98.322 E3.68325
G1 X96.417 Y98.312 E3.69953
G1 X97.251 Y98.795 E3.71734
G1 X97.708 Y99.884 E3.73917 F600.000
G1 X97.742 Y100.005 E3.74150
G1 X97.549 Y100.800 E3.75663
G1 X97.168 Y101.297 E3.76820
G1 X97.016 Y101.381 E3.77142
G1 X96.525 Y101.154 F7800.000
M106 S255
G1 Z1.400 F7800.000
G1 X96.338 Y100.392 F7800.000
G1 X96.148 Y100.495 E3.77744 F600.000
G1 X95.890 Y100.500 E3.78460
G1 X95.638 Y100.367 E3.79253
G1 X95.500 Y100.144 E3.79981
G1 X95.494 Y99.876 E3.80725
G1 X95.630 Y99.633 E3.81501
G1 X95.868 Y99.494 E3.82267
G1 X96.113 Y99.490 E3.82946
G1 X96.311 Y99.605 E3.83584
G1 X96.490 Y100.093 E3.85027
G1 X96.455 Y100.242 E3.85454
G1 X96.385 Y100.333 E3.85774
G1 X97.060 Y100.532 F7800.000
G1 X96.770 Y100.903 E3.87083 F600.000
G1 X96.320 Y101.146 E3.88504
G1 X95.735 Y101.158 E3.90130
G1 X95.199 Y100.876 E3.91811
G1 X95.156 Y100.832 E3.91982
G1 X94.880 Y100.386 E3.93438
G1 X94.848 Y100.266 E3.93784
G1 X94.837 Y99.781 E3.95133
G1 X94.873 Y99.645 E3.95522
G1 X95.113 Y99.217 E3.96886
G1 X95.211 Y99.120 E3.97270
G1 X95.634 Y98.872 E3.98630
G1 X95.753 Y98.841 E3.98973
G1 X96.209 Y98.834 E4.00241
G1 X96.345 Y98.868 E4.00629
G1 X96.793 Y99.128 E4.02069
G1 X96.855 Y99.188 E4.02308
G1 X97.172 Y100.051 E4.04863
G1 X97.077 Y100.459 E4.06026
G1 X97.591 Y100.656 F7800.000
G1 X97.563 Y100.773 E4.06248 F600.000
G1 X97.129 Y101.328 E4.07552
G1 X96.548 Y101.642 E4.08772
G1 X96.429 Y101.689 E4.09008
G1 X95.661 Y101.705 E4.10430
G1 X95.555 Y101.680 E4.10630
G1 X94.872 Y101.319 E4.12059
G1 X94.725 Y101.172 E4.12443
G1 X94.374 Y100.605 E4.13677
G1 X94.305 Y100.344 E4.14176
G1 X94.290 Y99.716 E4.15338
G1 X94.364 Y99.439 E4.15868
G1 X94.675 Y98.884 E4.17044
G1 X94.877 Y98.684 E4.17568
G1 X95.423 Y98.365 E4.18738
G1 X95.678 Y98.297 E4.19226
G1 X96.273 Y98.287 E4.20327
G1 X96.552 Y98.358 E4.20859
G1 X97.124 Y98.690 E4.22082 F600.000
G1 X97.324 Y98.883 E4.22595
G1 X97.740 Y100.016 E4.24828
G1 X97.608 Y100.583 E4.25904
G1 X97.476 Y100.691 F7800.000
G1 Z1.700 F7800.000
G1 X96.467 Y100.215 F7800.000
G1 X96.302 Y100.423 E4.26641 F600.000
G1 X96.250 Y100.451 E4.26806
G1 X96.102 Y100.509 E4.27247
G1 X95.928 Y100.513 E4.27730
G1 X95.823 Y100.488 E4.28029
G1 X95.705 Y100.426 E4.28401
G1 X95.549 Y100.269 E4.29015
G1 X95.477 Y100.001 E4.29786
G1 X95.547 Y99.740 E4.30537
G1 X95.749 Y99.540 E4.31326
G1 X95.992 Y99.475 E4.32025
G1 X96.240 Y99.538 E4.32735
G1 X96.387 Y99.681 E4.33305
G1 X96.509 Y100.026 E4.34323
G1 X96.483 Y100.142 E4.34652
G1 X96.980 Y100.622 F7800.000
G1 X96.731 Y100.935 E4.35763 F600.000
G1 X96.526 Y101.046 E4.36412
G1 X96.233 Y101.161 E4.37287
G1 X95.858 Y101.169 E4.38327
G1 X95.591 Y101.106 E4.39090
G1 X95.311 Y100.958 E4.39969
G1 X95.038 Y100.684 E4.41043
G1 X94.939 Y100.524 E4.41566
G1 X94.822 Y100.082 E4.42837
G1 X94.818 Y99.933 E4.43249
G1 X94.938 Y99.483 E4.44545
G1 X95.015 Y99.345 E4.44983
G1 X95.350 Y99.014 E4.46290
G1 X95.492 Y98.931 E4.46748
G1 X95.918 Y98.818 E4.47972
G1 X96.054 Y98.816 E4.48349
G1 X96.509 Y98.931 E4.49655
G1 X96.620 Y98.995 E4.50010 F600.000
G1 X96.948 Y99.312 E4.51278
G1 X97.115 Y99.757 E4.52596
G1 X97.183 Y100.014 E4.53337
G1 X97.072 Y100.504 E4.54732
G1 X97.026 Y100.563 E4.54939
G1 X97.407 Y100.960 F7800.000
G1 X97.089 Y101.361 E4.55885 F600.000
G1 X96.756 Y101.541 E4.56585
G1 X96.342 Y101.704 E4.57408
G1 X95.800 Y101.716 E4.58409
G1 X95.398 Y101.620 E4.59174
G1 X94.984 Y101.401 E4.60039
G1 X94.608 Y101.024 E4.61024
G1 X94.433 Y100.742 E4.61637
G1 X94.278 Y100.160 E4.62752
G1 X94.271 Y99.868 E4.63290
G1 X94.429 Y99.276 E4.64424
G1 X94.577 Y99.012 E4.64984
G1 X95.015 Y98.578 E4.66123
G1 X95.281 Y98.423 E4.66691
G1 X95.843 Y98.274 E4.67767
G1 X96.117 Y98.270 E4.68274
G1 X96.717 Y98.421 E4.69417
G1 X96.951 Y98.557 E4.69918 F600.000
G1 X97.415 Y99.006 E4.71112
G1 X97.635 Y99.591 E4.72268
G1 X97.744 Y100.005 E4.73058
G1 X97.577 Y100.745 E4.74462
G1 X97.453 Y100.901 E4.74830
G1 X96.912 Y100.887 F7800.000
G1 Z2.000 F7800.000
G1 X96.465 Y100.213 F7800.000
G1 X96.304 Y100.411 E4.75539 F600.000
G1 X96.036 Y100.516 E4.76338
G1 X95.760 Y100.450 E4.77128
G1 X95.571 Y100.261 E4.77871
G1 X95.503 Y100.001 E4.78616
G1 X95.574 Y99.745 E4.79355
G1 X95.752 Y99.568 E4.80053
G1 X95.998 Y99.499 E4.80763
G1 X96.234 Y99.561 E4.81439
G1 X96.440 Y99.763 E4.82242
G1 X96.509 Y100.024 E4.82991
G1 X96.482 Y100.140 E4.83321
G1 X97.104 Y100.359 F7800.000
G1 X97.069 Y100.508 E4.83748 F600.000
G1 X96.702 Y100.957 E4.85359
G1 X96.145 Y101.176 E4.87022
G1 X95.998 Y101.180 E4.87431
G1 X95.427 Y101.044 E4.89060
G1 X94.982 Y100.597 E4.90811
G1 X94.825 Y99.997 E4.92536
G1 X94.989 Y99.402 E4.94248
G1 X95.413 Y98.983 E4.95904
G1 X95.989 Y98.822 E4.97567
G1 X96.063 Y98.840 E4.97776
G1 X96.568 Y98.972 E4.99227 F600.000
G1 X97.028 Y99.423 E5.01016
G1 X97.182 Y100.013 E5.02712
G1 X97.120 Y100.285 E5.03488
G1 X97.635 Y100.480 F7800.000
G1 X97.572 Y100.754 E5.04008 F600.000
G1 X97.049 Y101.394 E5.05536
G1 X96.254 Y101.719 E5.07125
G1 X95.940 Y101.726 E5.07706
G1 X95.240 Y101.560 E5.09035
G1 X95.096 Y101.484 E5.09337
G1 X94.492 Y100.878 E5.10918
G1 X94.261 Y99.993 E5.12609
G1 X94.502 Y99.117 E5.14288
G1 X95.130 Y98.496 E5.15921
G1 X95.978 Y98.260 E5.17549
G1 X96.194 Y98.311 E5.17959
G1 X96.846 Y98.481 E5.19204 F600.000
G1 X97.505 Y99.127 E5.20912
G1 X97.743 Y100.004 E5.22592
G1 X97.652 Y100.407 E5.23355
G1 X97.366 Y100.563 F7800.000
G1 Z2.300 F7800.000
G1 X96.462 Y100.216 F7800.000
G1 X96.312 Y100.395 E5.24004 F600.000
G1 X96.043 Y100.498 E5.24806
G1 X95.753 Y100.432 E5.25631
G1 X95.546 Y100.237 E5.26421
G1 X95.481 Y100.000 E5.27104
G1 X95.549 Y99.745 E5.27836
G1 X95.753 Y99.544 E5.28632
G1 X96.002 Y99.478 E5.29346
G1 X96.247 Y99.537 E5.30047
G1 X96.435 Y99.727 E5.30788
G1 X96.509 Y100.017 E5.31619
G1 X96.479 Y100.143 E5.31979
G1 X97.100 Y100.364 F7800.000
G1 X97.064 Y100.516 E5.32413 F600.000
G1 X96.705 Y100.945 E5.33968
G1 X96.091 Y101.180 E5.35795
G1 X95.435 Y101.030 E5.37663
G1 X94.963 Y100.588 E5.39459
G1 X94.813 Y100.040 E5.41039
G1 X94.815 Y99.957 E5.41269
G1 X94.953 Y99.443 E5.42748
G1 X94.991 Y99.377 E5.42961
G1 X95.389 Y98.984 E5.44514
G1 X95.456 Y98.947 E5.44725
G1 X95.951 Y98.813 E5.46151
G1 X96.046 Y98.815 E5.46414
G1 X96.505 Y98.927 E5.47726 F600.000
G1 X96.633 Y98.997 E5.48132
G1 X97.025 Y99.392 E5.49677
G1 X97.182 Y100.009 E5.51446
G1 X97.117 Y100.291 E5.52250
G1 X97.631 Y100.488 F7800.000
G1 X97.566 Y100.767 E5.52780 F600.000
G1 X97.032 Y101.404 E5.54317
G1 X96.167 Y101.734 E5.56028
G1 X96.078 Y101.736 E5.56193
G1 X95.170 Y101.529 E5.57915
G1 X94.532 Y100.932 E5.59531
G1 X94.444 Y100.759 E5.59889
G1 X94.267 Y100.108 E5.61136
G1 X94.271 Y99.881 E5.61557
G1 X94.445 Y99.232 E5.62799
G1 X94.556 Y99.040 E5.63209
G1 X95.059 Y98.544 E5.64514
G1 X95.248 Y98.438 E5.64915
G1 X95.883 Y98.267 E5.66131
G1 X96.116 Y98.271 E5.66561
G1 X96.705 Y98.415 E5.67682 F600.000
G1 X96.965 Y98.558 E5.68230
G1 X97.418 Y99.015 E5.69422
G1 X97.527 Y99.155 E5.69749
G1 X97.743 Y100.003 E5.71367
G1 X97.648 Y100.414 E5.72148
G1 X97.357 Y100.571 F7800.000
G1 Z2.600 F7800.000
G1 X96.459 Y100.221 F7800.000
G1 X96.311 Y100.395 E5.72781 F600.000
G1 X96.040 Y100.494 E5.73581
G1 X95.709 Y100.429 E5.74518
G1 X95.580 Y100.305 E5.75015
G1 X95.486 Y100.120 E5.75593
G1 X95.490 Y99.864 E5.76303
G1 X95.653 Y99.612 E5.77137
G1 X95.878 Y99.486 E5.77852
G1 X96.132 Y99.490 E5.78557
G1 X96.358 Y99.614 E5.79274
G1 X96.438 Y99.718 E5.79638
G1 X96.509 Y100.007 E5.80466
G1 X96.476 Y100.148 E5.80868
G1 X97.096 Y100.372 F7800.000
G1 X97.059 Y100.526 E5.81308 F600.000
G1 X96.697 Y100.950 E5.82857
G1 X96.094 Y101.171 E5.84642
G1 X95.441 Y101.043 E5.86489
G1 X95.304 Y100.947 E5.86956
G1 X95.047 Y100.701 E5.87943
G1 X94.880 Y100.372 E5.88966
G1 X94.830 Y100.189 E5.89495
G1 X94.837 Y99.793 E5.90594
G1 X94.890 Y99.593 E5.91168
G1 X95.091 Y99.248 E5.92277
G1 X95.256 Y99.084 E5.92924
G1 X95.611 Y98.885 E5.94055
G1 X95.814 Y98.831 E5.94638
G1 X96.221 Y98.837 E5.95769
G1 X96.367 Y98.872 E5.96186 F600.000
G1 X96.776 Y99.098 E5.97484
G1 X97.040 Y99.427 E5.98656
G1 X97.183 Y100.004 E6.00308
G1 X97.113 Y100.299 E6.01150
G1 X97.626 Y100.498 F7800.000
G1 X97.559 Y100.780 E6.01686 F600.000
G1 X97.019 Y101.413 E6.03225
G1 X96.138 Y101.735 E6.04959
G1 X95.223 Y101.556 E6.06684
G1 X94.956 Y101.369 E6.07285
G1 X94.603 Y101.030 E6.08191
G1 X94.369 Y100.569 E6.09146
G1 X94.284 Y100.257 E6.09744
G1 X94.293 Y99.717 E6.10743
G1 X94.383 Y99.382 E6.11383
G1 X94.656 Y98.911 E6.12390
G1 X94.926 Y98.645 E6.13091
G1 X95.404 Y98.376 E6.14105
G1 X95.746 Y98.284 E6.14760
G1 X96.291 Y98.292 E6.15767
G1 X96.567 Y98.360 E6.16292 F600.000
G1 X97.108 Y98.658 E6.17435
G1 X97.228 Y98.780 E6.17751
G1 X97.542 Y99.184 E6.18697
G1 X97.744 Y100.002 E6.20254
G1 X97.643 Y100.425 E6.21058
G1 X97.348 Y100.581 F7800.000
G1 Z2.900 F7800.000
G1 X96.455 Y100.227 F7800.000
G1 X96.302 Y100.403 E6.21707 F600.000
G1 X96.009 Y100.510 E6.22572
G1 X95.781 Y100.464 E6.23218
G1 X95.627 Y100.355 E6.23744
G1 X95.511 Y100.127 E6.24454
G1 X95.513 Y99.867 E6.25176
G1 X95.642 Y99.644 E6.25892
G1 X95.889 Y99.505 E6.26679
G1 X96.133 Y99.509 E6.27356
G1 X96.356 Y99.625 E6.28056
G1 X96.450 Y99.746 E6.28481
G1 X96.510 Y99.998 E6.29201
G1 X96.473 Y100.154 E6.29646
G1 X96.949 Y100.656 F7800.000
G1 X96.685 Y100.960 E6.30763 F600.000
G1 X96.084 Y101.180 E6.32540
G1 X95.920 Y101.160 E6.33000
G1 X95.517 Y101.078 E6.34142
G1 X95.117 Y100.797 E6.35502
G1 X94.856 Y100.282 E6.37106
G1 X94.859 Y99.690 E6.38751
G1 X95.165 Y99.161 E6.40447
G1 X95.723 Y98.848 E6.42222
G1 X96.298 Y98.857 E6.43820
G1 X96.784 Y99.111 E6.45344 F600.000
G1 X97.054 Y99.456 E6.46561
G1 X97.183 Y99.999 E6.48113
G1 X97.054 Y100.536 E6.49646
G1 X96.998 Y100.600 E6.49882
G1 X97.360 Y101.014 F7800.000
G1 X97.005 Y101.423 E6.50885 F600.000
G1 X96.149 Y101.737 E6.52569
G1 X95.833 Y101.698 E6.53157
G1 X95.297 Y101.590 E6.54168
G1 X94.767 Y101.217 E6.55366
G1 X94.673 Y101.127 E6.55607
G1 X94.310 Y100.410 E6.57092
G1 X94.315 Y99.541 E6.58699
G1 X94.755 Y98.783 E6.60320
G1 X94.792 Y98.746 E6.60418
G1 X95.609 Y98.302 E6.62136
G1 X96.435 Y98.314 E6.63664
